X:1
T:Sento una voce
T:Giovanni Matteo Asola
T:Source : Madrigali a due voci---Venetia---G.Vincenti---1587. Editor : André Vierendeels (15/11/17). Notes : Original clef : C3 ( Fuga di un tempo e mezo, in unisono) Editorial accidentals above the staff Terza stanza
T:#
T:#
T:Sento una voce
T:©
T:©
T:©
T:©
T:©
C:Giovanni Matteo Asola
Z:©
%%score [ 1 2 ]
L:1/8
Q:1/4=120
M:2/2
K:F
V:1 treble-8 nm="Tenor 1" snm="T 1"
V:2 treble-8 nm="Tenor 2" snm="T 2"
V:1
 d4 d2 d2 | g4 e4 | f2 d2 c2 B2 | A4 G2 g2- | g2 fe f4 | g2 G2 A2 c2 | B2 f2 e2 d2 | c2 c2 d2 cB | %8
w: Sen- to'u- na|vo- ce|ho- mai scen der|dal cie- *||lo, scen- der dal|cie- * * *||
 A3 G A4 | G2 g2 f2 e2 | d4 c2 f2 | f2 e2 f2 g2 | a4 f4 | g2 e2 d2 c2- | c2 B2 c2 F2 | %15
w: |lo, scen- der dal|cie- lo, e|tra li'ar- bu- sti'e|ben con-|te- sti ra- *|* * * mi'e|
 B2 c2 d2 e2 | d4 d4 | z2 A2 B2 c2 | d4 e2 f2- | f2 e2 f2 g2 | f2 g2 a2 f2 | d2 f4 e2 | f4 z2 d2- | %23
w: ben con- te- sti|ra- mi,|e ben con-|te- sti ra-|* * mi, e|ben con- te- sti|ra- * *|mi, ri-|
 dd c2 d2 G2 | d2 B2 c2 d2 | B4 A4 | z2 a3 a f2 | d2 e2 f2 g2 | f2 d2 e2 f2- | fe d4 c2 | d4 A4 | %31
w: * so- nar per le-|sel- v'e per li|pog- gi,|ri- so- nar|per le sel- v'e|per li pog- *||* gi,|
 z4 z2 G2 | B4 A2 d2 | f4 e4 | z2 d2 ^c4 | d2 G3 ABc | defg a2 f2- | fe d4 c2 | d4 e4 | f2 g2 d4 | %40
w: e|dir- mi, e|dir- mi,|e dir-|mi sur- * * *|* * * * * gi'ho-||mai la-|scia le fron-|
 G2 d2 ^c2 d2 | B4 A4 | z2 a2 a2 g2 | a2 g4 f2 | g2 a2 a2 f2- | fe d4 c2 | d4 z2 e2 | f2 g2 a4 | %48
w: di, la- scia le|fron- di,|la- scia le|fron- * *|di, la- scia le|_ _ fron- *|di, pre-|di quel ni-|
 g2 f3 e d2- | d2 G2 A2 A2 | B4 A4 | z2 c2 FGAB | c2 A2 Bcde | f2 g2 e2 a2- | a2 g2 a2 e2 | %55
w: v'et ho- * *|* no- ra- to|lu- me,|et ho- * * *|* no- ra- * * *|* * to lu-|* * me, che|
 f2 g2 a2 a2 | e2 f2 d4- | d2 cB c2 d2 | B4 A4 | z4 A4 | A2 A2 Bcde | f2 g2 e2 a2- |"^#" ag g4 f2 | %63
w: non vien nen per|qua- li- ta|_ _ _ _ di|tem- po,|per|qua- li- ta _ _ _|_ _ di tem-||
 g4 z2 e2 | f2 e2 d2 G2 | d2 B2 c4- | c2 B2 A4 | G2 g2 g2 g2 | a2 g2 f2 g2- | gffe/d/ e3 d | %70
w: po, che|non vien men per|qua- li- ta|_ di tem-|po, per qua- li-|ta di tem- *||
 ef g4 f2 | g8 |] %72
w: |po.|
V:2
 z8 | z8 | z8 | z8 | d4 d2 d2 | g4 e4 | f2 d2 c2 B2 | A4 G2 g2- |"^#""^#" g2 fe f4 | g2 G2 A2 c2 | %10
w: ||||Sen- to'u- na|vo- ce|ho- mai scen- der|dal cie- *||lo, scen- der dal|
 B2 f2 e2 d2 | c2 c2 d2 cB | A3 G A4 | G2 g2 f2 e2 | d4 c2 f2 | f2 e2 f2 g2 | a4 f4 | %17
w: cie- * * *|||lo, scen- der dal|cie- lo, e|tra li'ar- bu- sti'e|ben con-|
 g2 e2 d2 c2- | c2 B2 c2 F2 | B2 c2 d2 e2 | d4 d4 | z2 A2 B2 c2 | d4 e2 f2- | f2 e2 f2 g2 | %24
w: te- sti ra- *|* * * mi'e|ben con- te- sti|ra- mi,|e ben con|te- sti ra-|* * mi, e|
 f2 g2 a2 f2 | d2 f4 e2 | f4 z2 d2- | dd c2 d2 G2 | d2 B2 c2 d2 | B4 A4 | z2 a3 a f2 | %31
w: ben con- te- sti|ra- * *|mi, ri-|* so- nar per le|sel- v'e per li|pog- gi,|ri- so- nar|
 d2 e2 f2 g2 | f2 d2 e2 f2- |"^#""^#" fe d4 c2 | d4 A4 | z4 z2 G2 | B4 A2 d2 | f4 e4 | z2 d2 ^c4 | %39
w: per le sel- v'e|per li pog- *||* gi,,|e|dir- mi, e|dir- mi,|e dir-|
"^-natural" d2 G3 ABc | defg a2 f2- |"^#""^#" fe d4 c2 | d4 e4 | f2 g2 d4 | G2 d2 ^c2 d2 | B4 A4 | %46
w: mi sur- * * *|* * * * * gi-|ho- * * *|mai la-|scia le fron-|di, la- scia le|fron- di,|
 z2 a2 a2 g2 | a2 g4 f2 | g2 a2 a2 f2- | fe d4 c2 | d4 z2 e2 | f2 g2 a4 | g2 f3 e d2- | %53
w: la- scia le|fron- * *|di, la- scia le-|* * fron- *|di, pre-|di quel ni-|v'et ho- * *|
 d2 G2 A2 A2 | B4 A4 | z2 c2 FGAB | c2 A2 Bcde | f2 g2 e2 a2- | a2 g2 a2 e2 | f2 g2 a2 a2 | %60
w: * no- ra- to|lu- me,|et ho- * * *|* no- ra- * * *|* * to lu-|* * me, che|non vien men per|
 e2 f2 d4- | d2 cB c2 d2 | B4 A4 | z4 A4 | A2 A2 Bcde | f2 g2 e2 a2- |"^#""^#" ag g4 f2 | %67
w: qua- li- ta|_ _ _ _ di|tem- po,|per|qua- li- ta _ _ _|_ _ di tem-||
 g4 z2 e2 | f2 e2 d2 G2 | d2 B2 c4- | c2 B2 A4 | G8 |] %72
w: po, che|non vien men per|qua- li- ta|_ di tem-|po.|

